X:2
T: McMahon's
T: The Banshee
M: 4/4
R: Reel
K: G
"G"G3D EDEG|"D"AGAB d2Bd|"C"eged BAGA|"D"BAGE EDDE|
"G"G3D EDEG|"D"AGAB d2Bd|"C"eged "Am"BAGA|"D"BAGE EDD2:|
|:"Am"ea2a efge|"G"dBBA B2 d2|"Em"eB (3BBB eBgf|eBBA B2Bd|
"Am"ea2a efge|"G"dBBA B2 d2|"C"eged "Am"BAGA|"D"BAGE EDD2:|
W:short end for transition:
"C"eged "D7"BAGA|"G"G2z2z2z2|]
